X:1
T:Mazurka Schloss Freiberg
C:Simon Wascher 
F:http://simonwascher.info/
Z:abc transcription Simon Wascher
M:3/4
L:1/8
K:C minor
"inegal"gec3e | d=BG4 | c=Bcded | =B4df |
gec3e | d=BG4 | cded=Bd | c6 :|
gag2fd | f2e3c | e2d3=B | dcc=Bc2 |
gag2fd | f2e3c | edd=BGB | c2c4 :|
%%wordsfont Times-Italic 11pt
W:aus Simon Waschers TradArchiv
